images_elementary_svg/cmd/lc_comparedocuments.svg

<svg height="24" width="24" xmlns="http://www.w3.org/2000/svg" xmlns:xlink="http://www.w3.org/1999/xlink"><linearGradient id="a"><stop offset="0"/><stop offset="1" stop-opacity="0"/></linearGradient><radialGradient id="b" cx="24.837126" cy="36.421127" gradientTransform="matrix(-.27598143 0 0 -.29583148 24.323798 24.819207)" gradientUnits="userSpaceOnUse" r="15.644737" xlink:href="#a"/><linearGradient id="c"><stop offset="0" stop-color="#fff"/><stop offset=".45000002" stop-color="#fff" stop-opacity=".235294"/><stop offset=".65000004" stop-color="#fff" stop-opacity=".156863"/><stop offset="1" stop-color="#fff" stop-opacity=".392157"/></linearGradient><linearGradient id="d" gradientTransform="matrix(0 -.5372019 -.57681717 0 49.997188 27.865617)" gradientUnits="userSpaceOnUse" x1="40.957993" x2="18.680689" xlink:href="#c" y1="46.97065" y2="46.97065"/><linearGradient id="e" gradientTransform="matrix(-.4766877 0 0 .44382351 28.94314 3.441469)" gradientUnits="userSpaceOnUse" x1="23.731871" x2="23.731871" y1="5.394345" y2="40.783871"><stop offset="0" stop-color="#f0c1ff"/><stop offset=".26238" stop-color="#c5a3f2"/><stop offset=".704952" stop-color="#7a36b1"/><stop offset="1" stop-color="#4c2d81"/></linearGradient><radialGradient id="f" cx="24.837126" cy="36.421127" gradientTransform="matrix(-.27598143 0 0 -.29583148 24.323798 24.819207)" gradientUnits="userSpaceOnUse" r="15.644737" xlink:href="#b"/><linearGradient id="g" gradientTransform="matrix(.49219581 0 0 .45839231 4.509306 3.206282)" gradientUnits="userSpaceOnUse" x1="23.731871" x2="23.731871" y1="5.394345" y2="39.735077"><stop offset="0" stop-color="#90dbec"/><stop offset=".26238" stop-color="#55c1ec"/><stop offset=".704952" stop-color="#3689e6"/><stop offset="1" stop-color="#2b63a0"/></linearGradient><linearGradient id="h" gradientTransform="matrix(0 -.5372019 .57681717 0 -15.997188 19.865617)" gradientUnits="userSpaceOnUse" x1="40.957993" x2="18.680689" xlink:href="#c" y1="46.97065" y2="46.97065"/><linearGradient id="i" xlink:href="#a"/><linearGradient id="j" gradientTransform="matrix(.24324324 0 0 .35135133 2.162164 -.432428)" gradientUnits="userSpaceOnUse" x1="23.99999" x2="23.99999" y1="6.923065" y2="41.076912"><stop offset="0" stop-color="#fff"/><stop offset="0" stop-color="#fff" stop-opacity=".235294"/><stop offset="1" stop-color="#fff" stop-opacity=".156863"/><stop offset="1" stop-color="#fff" stop-opacity=".392157"/></linearGradient><linearGradient id="k"><stop offset="0" stop-color="#f4f4f4"/><stop offset="1" stop-color="#dbdbdb"/></linearGradient><linearGradient id="l" gradientTransform="matrix(.28571361 0 0 .30419701 1.142873 .232605)" gradientUnits="userSpaceOnUse" x1="25.132275" x2="25.221258" xlink:href="#k" y1=".985206" y2="51.832962"/><linearGradient id="m" gradientTransform="matrix(.25378586 0 0 .30501865 19.128979 -.685477)" gradientUnits="userSpaceOnUse" x1="-51.786404" x2="-51.786404" y1="50.786446" y2="2.906247"><stop offset="0" stop-opacity=".339506"/><stop offset="1" stop-opacity=".246914"/></linearGradient><linearGradient id="n"><stop offset="0" stop-opacity="0"/><stop offset=".5"/><stop offset="1" stop-opacity="0"/></linearGradient><radialGradient id="o" cx="605.71429" cy="486.64789" gradientTransform="matrix(-.00803239 0 0 .00617647 8.840804 16.235423)" gradientUnits="userSpaceOnUse" r="117.14286" xlink:href="#i"/><linearGradient id="p" gradientTransform="matrix(.02071006 0 0 .00617647 1.514793 16.23541)" gradientUnits="userSpaceOnUse" x1="302.85715" x2="302.85715" xlink:href="#n" y1="366.64789" y2="609.50507"/><linearGradient id="q" gradientTransform="matrix(.28571361 0 0 .30419701 1.142873 .232605)" gradientUnits="userSpaceOnUse" x1="25.132275" x2="25.132275" xlink:href="#k" y1=".985206" y2="47.013336"/><linearGradient id="r" gradientTransform="matrix(.02071006 0 0 .00617647 23.006319 8.633711)" gradientUnits="userSpaceOnUse" x1="302.85715" x2="302.85715" xlink:href="#n" y1="366.64789" y2="609.50507"/><radialGradient id="s" cx="605.71429" cy="486.64789" gradientTransform="matrix(-.00803239 0 0 .00617647 30.33233 8.633724)" gradientUnits="userSpaceOnUse" r="117.14286" xlink:href="#i"/><radialGradient id="t" cx="605.71429" cy="486.64789" gradientTransform="matrix(.00803239 0 0 .00617647 30.651196 8.633724)" gradientUnits="userSpaceOnUse" r="117.14286" xlink:href="#i"/><path d="m4 18.499998h10v1.5h-10z" fill="url(#p)" opacity=".15"/><path d="m4 18.500063v1.499919c-.413648.0029-1-.336056-1-.750057 0-.413999.4616-.749862 1-.749862z" fill="url(#o)" opacity=".15"/><g transform="translate(.999999 1.999963)"><path d="m3 1c2.2915074 0 9.999988.0008904 9.999988.0008904l.000012 13.9991096s-6.6666668 0-10 0c0-4.666666 0-9.3333336 0-14z" fill="url(#l)"/><g fill="none"><path d="m12.5 15.516949h-9.0000001v-14.016949h9.0000001z" stroke="url(#j)" stroke-linecap="round"/><path d="m2.4999621.49997396c2.5206756 0 11.0000629.000954 11.0000629.000954l.000013 15.96520004h-11.000076z" stroke="url(#m)" stroke-linejoin="round" stroke-width=".999922"/></g></g><path d="m8 4.9990826c1.604056 0 7 .000867 7 .000867l.000009 13.0000004s-4.666672 0-7.000009 0c0-4.33361 0-8.6672194 0-13.0008294z" opacity=".05"/><g transform="translate(6.999999 5.999963)"><path d="m3 1c2.2915074 0 9.999988.0008904 9.999988.0008904l.000012 13.9991096s-6.6666668 0-10 0c0-4.666666 0-9.3333336 0-14z" fill="url(#q)"/><g fill="none"><path d="m12.5 14.5h-9.0000001v-13h9.0000001z" stroke="url(#j)" stroke-linecap="round"/><path d="m2.4999621.49997396c2.5206756 0 11.0000629.000954 11.0000629.000954l.000013 14.99909804s-7.3333841 0-11.000076 0c0-5.000017 0-10.000035.0000001-15.00005204z" stroke="url(#m)" stroke-linejoin="round" stroke-width=".999922"/></g></g><g transform="translate(-15.491526 10.601698)"><path d="m25.491526 10.8983h10v1.5h-10z" fill="url(#r)" opacity=".15"/><path d="m25.491526 10.898364v1.499919c-.413648.0029-1-.336056-1-.750057 0-.413999.4616-.749862 1-.749862z" fill="url(#s)" opacity=".15"/><path d="m35.492 10.898364v1.499919c.413648.0029 1-.336056 1-.750057 0-.413999-.4616-.749862-1-.749862z" fill="url(#t)" opacity=".15"/></g><g transform="translate(-.000029 6)"><path d="m13.151555 14.044686a4.3176575 4.6282088 0 1 1 8.635315 0 4.3176575 4.6282088 0 0 1 -8.635315 0z" fill="url(#b)" fill-rule="evenodd" opacity=".141176"/><path d="m17.499999 17.221611-7-5.673017 7-5.6960219v3.6474278h6.000001v4.0000001h-6.000001z" display="block" fill="url(#e)"/><g fill="none"><path d="m16.5 15.111422-4.434589-3.562828 4.434589-3.6228751v2.5742811h6v2h-6z" display="block" opacity=".401" stroke="url(#d)" stroke-miterlimit="7" stroke-width=".963925"/><path d="m17.5 17.221611-7-5.673017 7-5.696022v3.6474278h6v4.0000002h-6z" opacity=".5" stroke="#6326b9" stroke-linejoin="round"/></g></g><g transform="translate(-9.999971)"><path d="m13.151556 14.044686a4.317657 4.6282081 0 1 1 8.635314 0 4.317657 4.6282081 0 0 1 -8.635314 0z" fill="url(#f)" fill-rule="evenodd" opacity=".141176"/><path d="m16.5 17.221611 7-5.673017-7-5.6960219v3.6474278h-6v4.0000001h6z" display="block" fill="url(#g)"/><g fill="none" stroke-miterlimit="7" transform="translate(0 8)"><path d="m17.5 7.111422 4.434589-3.562828-4.434589-3.6228751v2.5742811h-6v2h6z" display="block" opacity=".401" stroke="url(#h)" stroke-width=".963925"/><path d="m16.5 9.221611 7-5.673017-7-5.696022v3.6474278h-6v4.0000002h6z" display="block" opacity=".5" stroke="#004372" stroke-linejoin="round"/></g></g></svg>

<?xml version="1.0" encoding="UTF-8" standalone="no"?>
<svg
   xmlns:dc="http://purl.org/dc/elements/1.1/"
   xmlns:cc="http://creativecommons.org/ns#"
   xmlns:rdf="http://www.w3.org/1999/02/22-rdf-syntax-ns#"
   xmlns:svg="http://www.w3.org/2000/svg"
   xmlns="http://www.w3.org/2000/svg"
   xmlns:xlink="http://www.w3.org/1999/xlink"
   xmlns:sodipodi="http://sodipodi.sourceforge.net/DTD/sodipodi-0.dtd"
   xmlns:inkscape="http://www.inkscape.org/namespaces/inkscape"
   height="24"
   width="24"
   version="1.1"
   id="svg111"
   sodipodi:docname="lc_comparedocuments.svg"
   inkscape:version="0.92.3 (unknown)"
   inkscape:export-filename="/home/rizmut/Dokumen/Rizmut/Github/libreoffice-style-elementary/images_elementary/cmd/lc_mergedocuments.png"
   inkscape:export-xdpi="96"
   inkscape:export-ydpi="96">
  <metadata
     id="metadata117">
    <rdf:RDF>
      <cc:Work
         rdf:about="">
        <dc:format>image/svg+xml</dc:format>
        <dc:type
           rdf:resource="http://purl.org/dc/dcmitype/StillImage" />
        <dc:title></dc:title>
      </cc:Work>
    </rdf:RDF>
  </metadata>
  <defs
     id="defs115">
    <linearGradient
       id="a-3"
       gradientTransform="matrix(0,-0.5372019,0.57681717,0,-15.997188,19.865617)"
       gradientUnits="userSpaceOnUse"
       x1="40.957993"
       x2="18.680689"
       y1="46.97065"
       y2="46.97065">
      <stop
         offset="0"
         stop-color="#fff"
         id="stop1341" />
      <stop
         offset=".45000002"
         stop-color="#fff"
         stop-opacity=".235294"
         id="stop1343" />
      <stop
         offset=".65000004"
         stop-color="#fff"
         stop-opacity=".156863"
         id="stop1345" />
      <stop
         offset="1"
         stop-color="#fff"
         stop-opacity=".392157"
         id="stop1347" />
    </linearGradient>
    <linearGradient
       id="b-6"
       gradientTransform="matrix(0.49219581,0,0,0.45839231,4.509306,3.2062819)"
       gradientUnits="userSpaceOnUse"
       x1="23.731871"
       x2="23.731871"
       y1="5.3943448"
       y2="39.735077">
      <stop
         offset="0"
         stop-color="#90dbec"
         id="stop1350" />
      <stop
         offset=".26238"
         stop-color="#55c1ec"
         id="stop1352" />
      <stop
         offset=".704952"
         stop-color="#3689e6"
         id="stop1354" />
      <stop
         offset="1"
         stop-color="#2b63a0"
         id="stop1356" />
    </linearGradient>
    <radialGradient
       id="c-7"
       cx="24.837126"
       cy="36.421127"
       gradientTransform="matrix(-0.27598143,0,0,-0.29583148,24.323798,24.819207)"
       gradientUnits="userSpaceOnUse"
       r="15.644737">
      <stop
         offset="0"
         id="stop1359" />
      <stop
         offset="1"
         stop-opacity="0"
         id="stop1361" />
    </radialGradient>
    <linearGradient
       id="a-5"
       gradientTransform="matrix(0,-0.5372019,-0.57681717,0,49.997188,27.865617)"
       gradientUnits="userSpaceOnUse"
       x1="40.957993"
       x2="18.680689"
       y1="46.97065"
       y2="46.97065">
      <stop
         offset="0"
         stop-color="#fff"
         id="stop2422" />
      <stop
         offset=".45000002"
         stop-color="#fff"
         stop-opacity=".235294"
         id="stop2424" />
      <stop
         offset=".65000004"
         stop-color="#fff"
         stop-opacity=".156863"
         id="stop2426" />
      <stop
         offset="1"
         stop-color="#fff"
         stop-opacity=".392157"
         id="stop2428" />
    </linearGradient>
    <linearGradient
       id="b-3"
       gradientTransform="matrix(-0.4766877,0,0,0.44382351,28.94314,3.4414689)"
       gradientUnits="userSpaceOnUse"
       x1="23.731871"
       x2="23.731871"
       y1="5.3943448"
       y2="40.783871">
      <stop
         offset="0"
         stop-color="#f0c1ff"
         id="stop2431" />
      <stop
         offset=".26238"
         stop-color="#c5a3f2"
         id="stop2433" />
      <stop
         offset=".704952"
         stop-color="#7a36b1"
         id="stop2435" />
      <stop
         offset="1"
         stop-color="#4c2d81"
         id="stop2437" />
    </linearGradient>
    <radialGradient
       id="c-5"
       cx="24.837126"
       cy="36.421127"
       gradientTransform="matrix(-0.27598143,0,0,-0.29583148,24.323798,24.819207)"
       gradientUnits="userSpaceOnUse"
       r="15.644737">
      <stop
         offset="0"
         id="stop2440" />
      <stop
         offset="1"
         stop-opacity="0"
         id="stop2442" />
    </radialGradient>
    <radialGradient
       inkscape:collect="always"
       xlink:href="#c-7"
       id="radialGradient3140"
       gradientUnits="userSpaceOnUse"
       gradientTransform="matrix(-0.27598143,0,0,-0.29583148,24.323798,24.819207)"
       cx="24.837126"
       cy="36.421127"
       r="15.644737" />
    <linearGradient
       inkscape:collect="always"
       xlink:href="#b-6"
       id="linearGradient3142"
       gradientUnits="userSpaceOnUse"
       gradientTransform="matrix(0.49219581,0,0,0.45839231,4.509306,3.2062819)"
       x1="23.731871"
       y1="5.3943448"
       x2="23.731871"
       y2="39.735077" />
    <linearGradient
       inkscape:collect="always"
       xlink:href="#a-3"
       id="linearGradient3144"
       gradientUnits="userSpaceOnUse"
       gradientTransform="matrix(0,-0.5372019,0.57681717,0,-15.997188,19.865617)"
       x1="40.957993"
       y1="46.97065"
       x2="18.680689"
       y2="46.97065" />
  </defs>
  <sodipodi:namedview
     pagecolor="#ffffff"
     bordercolor="#666666"
     borderopacity="1"
     objecttolerance="10"
     gridtolerance="10"
     guidetolerance="10"
     inkscape:pageopacity="0"
     inkscape:pageshadow="2"
     inkscape:window-width="1366"
     inkscape:window-height="706"
     id="namedview113"
     showgrid="true"
     inkscape:zoom="13.906433"
     inkscape:cx="1.594609"
     inkscape:cy="12.807855"
     inkscape:window-x="0"
     inkscape:window-y="0"
     inkscape:window-maximized="1"
     inkscape:current-layer="svg111">
    <inkscape:grid
       type="xygrid"
       id="grid924" />
  </sodipodi:namedview>
  <linearGradient
     id="a">
    <stop
       offset="0"
       id="stop2" />
    <stop
       offset="1"
       stop-opacity="0"
       id="stop4" />
  </linearGradient>
  <linearGradient
     id="b"
     gradientTransform="matrix(.24324324 0 0 .35135133 2.162164 -.432428)"
     gradientUnits="userSpaceOnUse"
     x1="23.99999"
     x2="23.99999"
     y1="6.923065"
     y2="41.076912">
    <stop
       offset="0"
       stop-color="#fff"
       id="stop7" />
    <stop
       offset="0"
       stop-color="#fff"
       stop-opacity=".235294"
       id="stop9" />
    <stop
       offset="1"
       stop-color="#fff"
       stop-opacity=".156863"
       id="stop11" />
    <stop
       offset="1"
       stop-color="#fff"
       stop-opacity=".392157"
       id="stop13" />
  </linearGradient>
  <linearGradient
     id="c">
    <stop
       offset="0"
       stop-color="#f4f4f4"
       id="stop16" />
    <stop
       offset="1"
       stop-color="#dbdbdb"
       id="stop18" />
  </linearGradient>
  <linearGradient
     id="d"
     gradientTransform="matrix(.28571361 0 0 .30419701 1.142873 .232605)"
     gradientUnits="userSpaceOnUse"
     x1="25.132275"
     x2="25.221258"
     xlink:href="#c"
     y1=".985206"
     y2="51.832962" />
  <linearGradient
     id="e"
     gradientTransform="matrix(.25378586 0 0 .30501865 19.128979 -.685477)"
     gradientUnits="userSpaceOnUse"
     x1="-51.786404"
     x2="-51.786404"
     y1="50.786446"
     y2="2.906247">
    <stop
       offset="0"
       stop-opacity=".339506"
       id="stop22" />
    <stop
       offset="1"
       stop-opacity=".246914"
       id="stop24" />
  </linearGradient>
  <linearGradient
     id="f">
    <stop
       offset="0"
       stop-opacity="0"
       id="stop27" />
    <stop
       offset=".5"
       id="stop29" />
    <stop
       offset="1"
       stop-opacity="0"
       id="stop31" />
  </linearGradient>
  <radialGradient
     id="g"
     cx="605.71429"
     cy="486.64789"
     gradientTransform="matrix(-.00803239 0 0 .00617647 8.840804 16.235423)"
     gradientUnits="userSpaceOnUse"
     r="117.14286"
     xlink:href="#a" />
  <linearGradient
     id="h"
     gradientTransform="matrix(.02071006 0 0 .00617647 1.514793 16.23541)"
     gradientUnits="userSpaceOnUse"
     x1="302.85715"
     x2="302.85715"
     xlink:href="#f"
     y1="366.64789"
     y2="609.50507" />
  <linearGradient
     id="i"
     gradientTransform="matrix(.28571361 0 0 .30419701 1.142873 .232605)"
     gradientUnits="userSpaceOnUse"
     x1="25.132275"
     x2="25.132275"
     xlink:href="#c"
     y1=".985206"
     y2="47.013336" />
  <linearGradient
     id="j"
     gradientTransform="matrix(.02071006 0 0 .00617647 23.006319 8.633711)"
     gradientUnits="userSpaceOnUse"
     x1="302.85715"
     x2="302.85715"
     xlink:href="#f"
     y1="366.64789"
     y2="609.50507" />
  <radialGradient
     id="k"
     cx="605.71429"
     cy="486.64789"
     gradientTransform="matrix(-.00803239 0 0 .00617647 30.33233 8.633724)"
     gradientUnits="userSpaceOnUse"
     r="117.14286"
     xlink:href="#a" />
  <radialGradient
     id="l"
     cx="605.71429"
     cy="486.64789"
     gradientTransform="matrix(.00803239 0 0 .00617647 30.651196 8.633724)"
     gradientUnits="userSpaceOnUse"
     r="117.14286"
     xlink:href="#a" />
  <linearGradient
     id="m"
     gradientTransform="matrix(-.00104535 .3194453 -.3133503 -.00102541 16.834997 6.928317)"
     gradientUnits="userSpaceOnUse"
     x1="28.442495"
     x2="47.224953"
     y1="12.162322"
     y2="12.162322">
    <stop
       offset="0"
       stop-color="#fcaf3e"
       id="stop40" />
    <stop
       offset="1"
       stop-color="#f57900"
       stop-opacity="0"
       id="stop42" />
  </linearGradient>
  <linearGradient
     id="n"
     gradientTransform="matrix(.00327238 -.9999947 .9999947 .00327238 -8.054776 30.932866)"
     gradientUnits="userSpaceOnUse"
     x1="15"
     x2="9"
     y1="19"
     y2="19">
    <stop
       offset="0"
       stop-color="#bf8407"
       id="stop45" />
    <stop
       offset="1"
       stop-color="#bf8407"
       stop-opacity="0"
       id="stop47" />
  </linearGradient>
  <linearGradient
     id="o"
     gradientTransform="matrix(.0012124 -.3704947 -.3617477 -.00118378 18.803295 23.352769)"
     gradientUnits="userSpaceOnUse"
     x1="22.488874"
     x2="3.59532"
     xlink:href="#p"
     y1="27.182123"
     y2="27.182123" />
  <linearGradient
     id="p">
    <stop
       offset="0"
       stop-color="#fff"
       id="stop51" />
    <stop
       offset="1"
       stop-color="#fff"
       stop-opacity="0"
       id="stop53" />
  </linearGradient>
  <linearGradient
     id="q"
     gradientTransform="matrix(-.00104535 -.3194453 -.3133503 .00102541 24.836051 24.065189)"
     gradientUnits="userSpaceOnUse"
     x1="28.442495"
     x2="47.224953"
     y1="12.162322"
     y2="12.162322">
    <stop
       offset="0"
       stop-color="#d7e866"
       id="stop56" />
    <stop
       offset="1"
       stop-color="#d7e866"
       stop-opacity="0"
       id="stop58" />
  </linearGradient>
  <linearGradient
     id="r"
     gradientTransform="matrix(.00327238 .9999947 .9999947 -.00327238 -.053722 .06064)"
     gradientUnits="userSpaceOnUse"
     x1="15"
     x2="9"
     y1="19"
     y2="19">
    <stop
       offset="0"
       stop-color="#699536"
       id="stop61" />
    <stop
       offset="1"
       stop-color="#699536"
       stop-opacity="0"
       id="stop63" />
  </linearGradient>
  <linearGradient
     id="s"
     gradientTransform="matrix(.0012124 .3704947 -.3617477 .00118378 26.804349 7.640737)"
     gradientUnits="userSpaceOnUse"
     x1="22.488874"
     x2="3.59532"
     xlink:href="#p"
     y1="27.182123"
     y2="27.182123" />
  <path
     d="m4 18.499998h10v1.5h-10z"
     fill="url(#h)"
     opacity=".15"
     id="path67" />
  <path
     d="m4 18.500063v1.499919c-.413648.0029-1-.336056-1-.750057 0-.413999.4616-.749862 1-.749862z"
     fill="url(#g)"
     opacity=".15"
     id="path69" />
  <g
     transform="translate(.999999 1.999963)"
     id="g79">
    <path
       d="m3 1c2.2915074 0 9.999988.0008904 9.999988.0008904l.000012 13.9991096s-6.6666668 0-10 0c0-4.666666 0-9.3333336 0-14z"
       fill="url(#d)"
       id="path71" />
    <g
       fill="none"
       id="g77">
      <path
         d="m12.5 15.516949h-9.0000001v-14.016949h9.0000001z"
         stroke="url(#b)"
         stroke-linecap="round"
         id="path73" />
      <path
         d="m2.4999621.49997396c2.5206756 0 11.0000629.000954 11.0000629.000954l.000013 15.96520004h-11.000076z"
         stroke="url(#e)"
         stroke-linejoin="round"
         stroke-width=".999922"
         id="path75" />
    </g>
  </g>
  <path
     d="m8 4.9990826c1.604056 0 7 .000867 7 .000867l.000009 13.0000004s-4.666672 0-7.000009 0c0-4.33361 0-8.6672194 0-13.0008294z"
     opacity=".05"
     id="path81" />
  <g
     transform="translate(6.999999,5.999963)"
     id="g91">
    <path
       d="m 3,1 c 2.2915074,0 9.999988,8.904e-4 9.999988,8.904e-4 L 13,15 C 13,15 6.3333332,15 3,15 3,10.333334 3,5.6666664 3,1 Z"
       id="path83"
       inkscape:connector-curvature="0"
       style="fill:url(#i)" />
    <g
       id="g89"
       style="fill:none">
      <path
         d="M 12.5,14.5 H 3.4999999 V 1.5 H 12.5 Z"
         id="path85"
         inkscape:connector-curvature="0"
         style="stroke:url(#b);stroke-linecap:round" />
      <path
         d="m 2.4999621,0.49997396 c 2.5206756,0 11.0000629,9.54e-4 11.0000629,9.54e-4 l 1.3e-5,14.99909804 c 0,0 -7.3333841,0 -11.000076,0 0,-5.000017 0,-10.000035 10e-8,-15.00005204 z"
         id="path87"
         inkscape:connector-curvature="0"
         style="stroke:url(#e);stroke-width:0.99992198;stroke-linejoin:round" />
    </g>
  </g>
  <g
     transform="translate(-15.491526 10.601698)"
     id="g99">
    <path
       d="m25.491526 10.8983h10v1.5h-10z"
       fill="url(#j)"
       opacity=".15"
       id="path93" />
    <path
       d="m25.491526 10.898364v1.499919c-.413648.0029-1-.336056-1-.750057 0-.413999.4616-.749862 1-.749862z"
       fill="url(#k)"
       opacity=".15"
       id="path95" />
    <path
       d="m35.492 10.898364v1.499919c.413648.0029 1-.336056 1-.750057 0-.413999-.4616-.749862-1-.749862z"
       fill="url(#l)"
       opacity=".15"
       id="path97" />
  </g>
  <g
     id="g3126"
     transform="translate(-2.9309564e-5,6)">
    <path
       id="path2494"
       d="m 13.151555,14.044686 a 4.3176575,4.6282088 0 1 1 8.635315,0 4.3176575,4.6282088 0 0 1 -8.635315,0 z"
       style="opacity:0.14117599;fill:url(#c-5);fill-rule:evenodd"
       inkscape:connector-curvature="0" />
    <path
       id="path2496"
       display="block"
       d="m 17.499999,17.221611 -7,-5.673017 7,-5.6960219 V 9.4999999 H 23.5 V 13.5 h -6.000001 z"
       style="display:block;fill:url(#b-3)"
       inkscape:connector-curvature="0" />
    <g
       style="fill:none"
       id="g2502">
      <path
         style="display:block;opacity:0.40100002;stroke:url(#a-5);stroke-width:0.963925;stroke-miterlimit:7"
         inkscape:connector-curvature="0"
         id="path2498"
         stroke-miterlimit="7"
         display="block"
         d="M 16.5,15.111422 12.065411,11.548594 16.5,7.9257189 V 10.5 h 6 v 2 h -6 z" />
      <path
         style="opacity:0.5;stroke:#6326b9;stroke-linejoin:round"
         inkscape:connector-curvature="0"
         id="path2500"
         d="m 17.5,17.221611 -7,-5.673017 7,-5.696022 v 3.6474278 h 6 V 13.5 h -6 z" />
    </g>
  </g>
  <g
     id="g3138"
     transform="translate(-9.9999707)">
    <path
       d="m 13.151556,14.044686 a 4.317657,4.6282081 0 1 1 8.635314,0 4.317657,4.6282081 0 0 1 -8.635314,0 z"
       id="path3128"
       inkscape:connector-curvature="0"
       style="opacity:0.14117599;fill:url(#radialGradient3140);fill-rule:evenodd" />
    <path
       d="m 16.5,17.221611 7,-5.673017 -7,-5.6960219 v 3.6474278 h -6 V 13.5 h 6 z"
       display="block"
       id="path3130"
       inkscape:connector-curvature="0"
       style="display:block;fill:url(#linearGradient3142)" />
    <g
       transform="translate(0,7.9999999)"
       stroke-miterlimit="7"
       id="g3136"
       style="fill:none;stroke-miterlimit:7">
      <path
         d="M 17.5,7.111422 21.934589,3.548594 17.5,-0.0742811 V 2.5 h -6 v 2 h 6 z"
         display="block"
         id="path3132"
         inkscape:connector-curvature="0"
         style="display:block;opacity:0.40100002;stroke:url(#linearGradient3144);stroke-width:0.963925" />
      <path
         d="m 16.5,9.221611 7,-5.673017 -7,-5.696022 v 3.6474278 h -6 V 5.5 h 6 z"
         display="block"
         id="path3134"
         inkscape:connector-curvature="0"
         style="display:block;opacity:0.5;stroke:#004372;stroke-linejoin:round" />
    </g>
  </g>
</svg>
